X: 1629
T: Off To California - setting 2
%S: s:2 b:10(5+5)
B: O'Neills 1850 #1629
Z: Nick Terhorst, nickte@microsoft.com
O: J. O'Neill
M: 2/4
L: 1/16
K: G
   D2 | G>FG>B  A>GE>F | G>FG>B e2dd | e>dB>d c>AE>F |[1,3 G>BA>G  E2 :|[2,4 G2B2 G2 :|
|: d2 | e>^de>f g>fg>B | G>BA>G E2D2 | G>FG>B e>dB>G |[1,3 A>^GA>B A2 :|[2,4 A2F2 G2 :|
